X:1
T:The Shepherd Calls
T:The Shepherd Calls
T:James Milton Black
T:Elmer E. Person, 1905
T:Public Domain Courtesy of the Cyber Hymnal™
C:James Milton Black
Z:Public Domain
Z:Courtesy of the Cyber Hymnal™
%%score ( 1 2 ) ( 3 4 )
L:1/8
Q:1/4=83
M:3/4
K:Ab
V:1 treble 
V:2 treble 
V:3 bass 
V:4 bass 
V:1
 [CE] | [Ec]>[Ec] [Ec]3 ([EB]/[EB]/) | [FA]>[DF] [FA]3 [FA] | [Fd]3 ([Fd]/[Fd]/) [FA]>[_FB] | %4
w: 1.~The|Shep- herd stands at~the *|o- pen door— He|stands and * waits for|
w: 2.~He’s|wait- ing at the *|out- er gate— The|gate of~the * o- pen|
w: 3.~Yield|Him your hand, and *|heart and love, O-|bey the * Shep- herd’s|
 [Ec]3 [Ec] [Ec]>[EB] | [EB]3 [Ec] [DB]>[DG] | [CA]4 [CA]2 |!<(! [=DB]3 [DF] [DG]>[DA] | %8
w: thee; He’s call- ing|now— has called be-|fore— Oh,|list- en to His|
w: fold; Why lin- ger|then or hes- i-|tate? His|love can- not be|
w: call; Be num- bered|in that fold a-|bove, Give|Him your life, your|
 !fermata![_DB]4!<)! ||[M:4/4]"^Refrain" E2 | [Ec]4 [CA]2 z2 | [DB][DE][DB][=D=B] [Ec]4 | %12
w: plea.||||
w: told.|He’s|call- ing,|call- ing, call- ing you,|
w: all.||||
 [Fd]2 [Fd]>[Fd] [Ec]2 [Ec]2 | [EB]2 [Ee]2 [Ee]2 [Ed]2 | [Ec]4 [EA]2 z2 | %15
w: |||
w: Turn now, to- day, make|Him your choice; He’s|call- ing,|
w: |||
 [FB][FA][DF][FA] !fermata![Fd]2 [Fd]2 | [Ec]!fermata![Ec][EA][FB] [Ec]2 [DB]2 | [CA]6 z |] %18
w: |||
w: call- ing call- ing you, Oh,|list- en to the Shep- herd’s|voice.|
w: |||
V:2
 x | x6 | x6 | x6 | x6 | x6 | x6 | x6 | x4 ||[M:4/4] E2 | x8 | x8 | x8 | x8 | x8 | x8 | x8 | x7 |] %18
V:3
 [A,,A,] | [A,,A,]>[A,,A,] [A,,A,]3 ([A,,A,]/[A,,A,]/) | [D,D]>[D,A,] [D,D]3 [D,D] | %3
 [D,A,]3 ([D,A,]/[D,A,]/) [D,A,]>[D,G,] | [A,,A,]3 [A,,A,] [A,,A,]>[E,G,] | %5
 [E,G,]3 [E,G,] [E,G,]>[E,B,] | [F,A,]4 [F,A,]2 | [B,,A,]3 [B,,A,] [B,,B,]>[B,,B,] | %8
 !fermata![E,G,]4 ||[M:4/4] [E,G,]2 | [A,,A,]4 [A,,A,]2 z2 | [E,G,][E,G,][E,G,][E,G,] [A,,A,]4 | %12
 [D,A,]2 [D,A,]>[F,A,] A,2 A,2 | [E,G,]2 [E,C]2 [E,C]2 [E,B,]2 | A,4 [A,C]2 z2 | %15
 [D,D][D,D][D,A,][D,A,] !fermata![D,A,]2 [D,A,]2 | %16
 [E,A,]!fermata![E,A,][C,A,][D,A,] [E,G,]2 [E,G,]2 | [A,,A,]6 z |] %18
V:4
 x | x6 | x6 | x6 | x6 | x6 | x6 | x6 | x4 ||[M:4/4] x2 | x8 | x8 | x4 A,2 A,2 | x8 | A,4 x4 | x8 | %16
 x8 | x7 |] %18

